X:1
T:Qui fuit ablutus
T:Daniel Friderici
T:Source : Bicinia sacra---Rostock---J.Richelius---1642. Editor : André Vierendeels (02/07/17).
T:Notes : Original clefs : G2, G2 Editorial accidentals above the staff 
T:Qui fuit ablutus
T:©
T:©
T:©
C:Daniel Friderici
Z:©
%%score [ 1 2 ]
L:1/8
Q:1/4=120
M:2/2
K:F
V:1 treble nm="Soprano 1" snm="S 1"
V:2 treble nm="Soprano 2" snm="S 2"
V:1
 c2 c2 c2 c2 | d2 cB c2 BA | B2 AG A2 GF | G2 AB c2 de | f2 ed e2 dc | d8 | c4 c2 B2 | A4 c4 | %8
w: Qui fu- it a-|blu- * * * * *|||||tus, li- qui-|da Jor-|
"^b" d2 c2 B2 c2 | d2 e2 f2 e2 | d2 c2 B2 A2 | B2 c2 d2 c2 | B4 A2 F2 | f2 c2 f4- | f2 ed e4 | %15
w: da- * * *||||nis in- un-|||
 f8 :: f3 f f2 e2 | d6 c2 | B6 A2 | G4 d2 e2 | f4 c4 | d4 e4 | z2 f4 c2 | d4 g2 g2 | f4 c4 | %25
w: da:|il- le me- as|sor- des|ab- lu-|it, sor- des|ab- *|lu- it,|il- le|me- as sor-|des ab-|
 d4 g4 | f8- | f4 e4 | d4 d4 | c4 AGAB | c2 F2 AGAB | c2 F2 AGAB | c4 F4 | B6 A2 | G2 F4 E2 | F8 | %36
w: |||lu- it|il- * * * *|* le il- * * *|* le, il- * * *|* le|tu- *|* * as,|il-|
 f2 e2 d2 e2 | f2 e2 d2 c2 | B4 A4 | G8 | F8 |] %41
w: |* * * le|tu- *||as.|
V:2
 A2 A2 A2 A2 | B2 AG A2 GF |"^-natural" G2 AB c2 BA | d2 cB A2 Bc | B2 cB A2 =Bc | =B2 c3 B/A/ B2 | %6
w: Qui fu- it a-|blu- * * * * *|||||
 c2 A4 =B2 | c4 A4 |"^b" B2 c2 d2 e2 | f2 e2 d2 c2 | B2 A2 G2 F2 | G8 | G4 c4 | B2 A2 A2 GF | G8 | %15
w: tus, li- qui-|da Jor-|da- * * *||||nis in-|un- * * * *||
 F8 :: z8 | f3 f f2 e2 | d6 c2 | c2 B3 A G2 | F2 G2 A2 F2 | B4 A4 | G2 d4 e2 | f4 c4 | d4 e4 | %25
w: da:||il le me- as|sor- des|ab- * * *||* lu-|it, il- le|me- as|sor- des|
 f4 e4 | d4 d4- | d2 c2 c4- | c4 =B4 | c8 | AGAB c2 F2 | AGAB c2 F2 | AGAB c4 | d4 G2 A2 | %34
w: ab- lu-|it, ab-|* * lu-||it,|il- * * * * le,|il- * * * * le,|il- * * * *|le, tu- *|
 B2 A2 G4 | F4 f2 e2 | d2 e2 f2 e2 | d2 c2 B2 A2 | G4 F4 | G8 | A8 |] %41
w: |as, il- *|||* le|tu-|as.|

